src/svg/circle-slash.svg

<svg height="16" width="14" xmlns="http://www.w3.org/2000/svg" viewBox="0 0 14 16">
  <path d="M7 1C3.14 1 0 4.14 0 8s3.14 7 7 7 7-3.14 7-7S10.86 1 7 1z m0 1.3c1.3 0 2.5 0.44 3.47 1.17L2.47 11.47c-0.73-0.97-1.17-2.17-1.17-3.47 0-3.14 2.56-5.7 5.7-5.7z m0 11.41c-1.3 0-2.5-0.44-3.47-1.17l8-8c0.73 0.97 1.17 2.17 1.17 3.47 0 3.14-2.56 5.7-5.7 5.7z" />
</svg>

<?xml version="1.0" encoding="UTF-8" standalone="no"?>
<svg width="14px" height="16px" viewBox="0 0 14 16" version="1.1" xmlns="http://www.w3.org/2000/svg" xmlns:xlink="http://www.w3.org/1999/xlink">
    <!-- Generator: Sketch 3.7.1 (28215) - http://www.bohemiancoding.com/sketch -->
    <title>circle-slash</title>
    <desc>Created with Sketch.</desc>
    <defs></defs>
    <g id="Octicons" stroke="none" stroke-width="1" fill="none" fill-rule="evenodd">
        <g id="circle-slash" fill="#000000">
            <path d="M7,1 C3.14,1 0,4.14 0,8 C0,11.86 3.14,15 7,15 C10.86,15 14,11.86 14,8 C14,4.14 10.86,1 7,1 L7,1 Z M7,2.3 C8.3,2.3 9.5,2.74 10.47,3.47 L2.47,11.47 C1.74,10.5 1.3,9.3 1.3,8 C1.3,4.86 3.86,2.3 7,2.3 L7,2.3 Z M7,13.71 C5.7,13.71 4.5,13.27 3.53,12.54 L11.53,4.54 C12.26,5.51 12.7,6.71 12.7,8.01 C12.7,11.15 10.14,13.71 7,13.71 L7,13.71 Z" id="Shape"></path>
        </g>
    </g>
</svg>
